X: 23063
T: Late Nights At The Central
R: jig
M: 6/8
K: Amixolydian
E3 FED|~E3 ABB|ABd ~F3|ABF ABF|
~E3 FED|~E3 BzF|ABd DFA|BAF EDB|
~E3 FED|E2d BAF|ABd ~F3|ABF ABF|
~E3 FED|~E3 BzF|ABd DFA|BAF EFA|
~B3 egf|edB d2B|BAF FEF|EDB DFA|
~B3 egf|edB d2B|BAF AFD|~E3 EFA|
~B3 egf|edB d2B|BAF FEF|EDB DAF|
~E3 FEF|ABd dfe|edB BAF|~E3 E3|

